packages/ui/src/lib/icons/svg/discord.svg

<svg width="100%" height="100%" viewBox="0 0 16 16" fill="none" xmlns="http://www.w3.org/2000/svg">
<path d="M5.29414 12.4725C5.06948 12.9457 4.80869 13.3947 4.51628 13.8171C3.33197 13.4298 2.12734 12.838 0.884319 11.8637C0.630296 9.00612 1.13834 6.1074 3.01247 3.13486C3.94163 2.67736 4.93627 2.34453 5.97607 2.1557C6.10477 2.39777 6.25719 2.72336 6.35992 2.98236C7.44375 2.80807 8.53774 2.80807 9.64189 2.98236C9.74464 2.72336 9.89367 2.39777 10.0212 2.1557C11.0599 2.34453 12.0534 2.67615 12.9826 3.13244C14.6072 5.67895 15.4144 8.55104 15.1164 11.8637C13.8733 12.8392 12.6676 13.431 11.4821 13.8183C11.1886 13.3959 10.9289 12.9457 10.7043 12.4737M5.29414 12.4725C4.86626 12.3018 4.45644 12.0912 4.06921 11.8467M5.29414 12.4725C7.52283 13.3613 8.54014 13.3369 10.7043 12.4737M11.9315 11.8467C11.5431 12.0924 11.1322 12.303 10.7043 12.4737" stroke="currentColor" stroke-width="1.5"/>
<path d="M5.56159 10.0774C4.77128 10.0774 4.12317 9.30296 4.12317 8.35993C4.12317 7.41691 4.75744 6.64117 5.56159 6.64117C6.36575 6.64117 7.01384 7.41555 7 8.35993C7.00125 9.30296 6.36575 10.0774 5.56159 10.0774ZM10.4083 10.0774C9.61796 10.0774 8.96984 9.30296 8.96984 8.35993C8.96984 7.41691 9.6041 6.64117 10.4083 6.64117C11.2124 6.64117 11.8605 7.41555 11.8467 8.35993C11.8467 9.30296 11.2124 10.0774 10.4083 10.0774Z" fill="currentColor"/>
</svg>

<svg xmlns="http://www.w3.org/2000/svg" fill="none" viewBox="0 0 16 16" width="100%" height="100%"><path stroke="currentColor" stroke-width="1.5" d="M5.294 12.473a9.6 9.6 0 0 1-.778 1.344 11.6 11.6 0 0 1-3.632-1.953c-.254-2.858.254-5.757 2.128-8.73.93-.457 1.924-.79 2.964-.978.129.242.281.567.384.826a10.4 10.4 0 0 1 3.282 0c.103-.259.252-.584.38-.826 1.038.189 2.031.52 2.96.976 1.625 2.547 2.432 5.419 2.134 8.732a11.6 11.6 0 0 1-3.634 1.954 9.5 9.5 0 0 1-.778-1.344m-5.41-.002a7.5 7.5 0 0 1-1.225-.625m1.225.626c2.229.888 3.246.864 5.41 0m1.227-.626q-.584.369-1.227.627"/><path fill="currentColor" d="M5.562 10.077c-.79 0-1.439-.774-1.439-1.717s.634-1.72 1.439-1.72c.804 0 1.452.775 1.438 1.719.001.943-.634 1.717-1.438 1.717m4.846 0c-.79 0-1.438-.774-1.438-1.717s.634-1.719 1.438-1.719 1.453.775 1.439 1.719c0 .943-.635 1.717-1.439 1.717"/></svg>
